X: 1
T:Reijlnder - Ja, d gr vi (M. Edn)
T:Mats Eden's Schottische
M:2/4
L:1/16
K:C
cede g2e2|cede f3A|\
GBAB GBAB|GcBc e2c2|\
zede g2e2|cede f3A|
GBAB GGAB|1 c2e2 c3B:|2 c2e2 cGAG\
|:ECAG ECAG|E2C2 CGAG|\
ECAG ECAG|F2D2 D4|
fedc B3A|A2G2 G3F|\
DFAF A3F|A2G2 GDAG|\
ECAG ECAG|E2C2 CGAG|
ECAG ECAG|F2D2 D4|\
fedc B3A|A2G2 G3F|\
DFAF E3D|1 D2C2 CGAG:|2 D2C2 C4||
